newicons/emoji_basket.svg

<?xml version="1.0" encoding="UTF-8" standalone="no"?>
<svg
   version="1.2"
   viewBox="0 0 48 48"
   id="svg12"
   sodipodi:docname="emoji_basket.svg"
   inkscape:version="1.4 (86a8ad7, 2024-10-11)"
   xmlns:inkscape="http://www.inkscape.org/namespaces/inkscape"
   xmlns:sodipodi="http://sodipodi.sourceforge.net/DTD/sodipodi-0.dtd"
   xmlns="http://www.w3.org/2000/svg"
   xmlns:svg="http://www.w3.org/2000/svg">
  <sodipodi:namedview
     id="namedview12"
     pagecolor="#ffffff"
     bordercolor="#000000"
     borderopacity="0.25"
     inkscape:showpageshadow="2"
     inkscape:pageopacity="0.0"
     inkscape:pagecheckerboard="true"
     inkscape:deskcolor="#d1d1d1"
     inkscape:zoom="39.9375"
     inkscape:cx="24.01252"
     inkscape:cy="24"
     inkscape:window-width="3840"
     inkscape:window-height="2097"
     inkscape:window-x="-8"
     inkscape:window-y="-8"
     inkscape:window-maximized="1"
     inkscape:current-layer="svg12" />
  <defs
     id="defs1" />
  <path
     d="M 20.525573,21.589869 13.144163,9.7566545 c -0.896359,-1.43725 -0.666707,-3.197839 0.51248,-3.9329234 v 0 c 1.179349,-0.7351648 2.862101,-0.166207 3.758541,1.2708008 l 8.94295,14.4953371 h -5.832561"
     fill="none"
     stroke="#ffffff"
     stroke-linecap="round"
     stroke-linejoin="round"
     stroke-width="1.20465"
     id="path1"
     style="stroke-width:1;stroke-dasharray:none" />
  <path
     d="m 24.307649,17.679187 h 16.847605 v 6.154476 H 6.8447461 V 17.679187 H 17.452616"
     fill="none"
     stroke="#ffffff"
     stroke-linecap="round"
     stroke-linejoin="round"
     stroke-width="1.20465"
     id="path2"
     style="stroke-width:1;stroke-dasharray:none" />
  <path
     d="M 24,23.863371 8.9091279,23.827241 12.826634,42.500234 H 24 35.173366 L 39.090872,23.827241 24,23.863371 v 0"
     fill="none"
     stroke="#ffffff"
     stroke-linecap="round"
     stroke-linejoin="round"
     stroke-width="1.20465"
     id="path3"
     style="stroke-width:1;stroke-dasharray:none" />
  <path
     d="m 26.551238,26.0015 6.998335,7.690244"
     fill="none"
     stroke="#ffffff"
     stroke-linecap="round"
     stroke-linejoin="round"
     stroke-width="1.20465"
     id="path4"
     style="stroke-width:1;stroke-dasharray:none" />
  <path
     d="m 18.309214,25.887323 12.707033,14.14325"
     fill="none"
     stroke="#ffffff"
     stroke-linecap="round"
     stroke-linejoin="round"
     stroke-width="1.20465"
     id="path5"
     style="stroke-width:1;stroke-dasharray:none" />
  <path
     d="M 14.236358,28.980058 24.307649,40.38025"
     fill="none"
     stroke="#ffffff"
     stroke-linecap="round"
     stroke-linejoin="round"
     stroke-width="1.20465"
     id="path6"
     style="stroke-width:1;stroke-dasharray:none" />
  <path
     d="m 15.391287,39.094916 1.112115,1.106923"
     fill="none"
     stroke="#ffffff"
     stroke-linecap="round"
     stroke-linejoin="round"
     stroke-width="1.20465"
     id="path7"
     style="stroke-width:1;stroke-dasharray:none" />
  <path
     d="M 14.813822,32.965572 21.248508,26.0015"
     fill="none"
     stroke="#ffffff"
     stroke-linecap="round"
     stroke-linejoin="round"
     stroke-width="1.20465"
     id="path8"
     style="stroke-width:1;stroke-dasharray:none" />
  <path
     d="M 16.670963,40.101311 29.939476,26.0015"
     fill="none"
     stroke="#ffffff"
     stroke-linecap="round"
     stroke-linejoin="round"
     stroke-width="1.20465"
     id="path9"
     style="stroke-width:1;stroke-dasharray:none" />
  <path
     d="M 24.307649,40.38025 33.996668,30.357005"
     fill="none"
     stroke="#ffffff"
     stroke-linecap="round"
     stroke-linejoin="round"
     stroke-width="1.20465"
     id="path10"
     style="stroke-width:1;stroke-dasharray:none" />
  <path
     d="m 31.016247,40.030573 1.73633,-1.462781"
     fill="none"
     stroke="#ffffff"
     stroke-linecap="round"
     stroke-linejoin="round"
     stroke-width="1.20465"
     id="path11"
     style="stroke-width:1;stroke-dasharray:none" />
  <path
     d="m 21.580577,19.614174 a 0.71152915,0.7112376 0 1 0 1.423058,0 0.71152915,0.7112376 0 1 0 -1.423058,0"
     fill="none"
     stroke="#ffffff"
     stroke-linecap="round"
     stroke-linejoin="round"
     stroke-width="1.20465"
     id="path12"
     style="stroke-width:1;stroke-dasharray:none" />
</svg>

<?xml version="1.0" encoding="UTF-8"?><svg id="a" xmlns="http://www.w3.org/2000/svg" viewBox="0 0 48 48"><path id="e" d="M20.5256,21.5886l-7.3814-11.8332c-.8964-1.4373-.6667-3.1978.5125-3.9329h0c1.1793-.7352,2.8621-.1662,3.7585,1.2708l8.943,14.4953h-5.8326" style="fill:none; stroke:#fff; stroke-linecap:round; stroke-linejoin:round;"/><path id="f" d="M24.3076,17.6779h16.8476v6.1545H6.8447v-6.1545h10.6079" style="fill:none; stroke:#fff; stroke-linecap:round; stroke-linejoin:round;"/><path id="g" d="M24,23.8621l-15.0909-.0361,3.9175,18.673h22.3467l3.9175-18.673-15.0909.0361h0" style="fill:none; stroke:#fff; stroke-linecap:round; stroke-linejoin:round;"/><path id="h" d="M26.5512,26.0002l6.9983,7.6902" style="fill:none; stroke:#fff; stroke-linecap:round; stroke-linejoin:round;"/><path id="i" d="M18.3092,25.886l12.707,14.1433" style="fill:none; stroke:#fff; stroke-linecap:round; stroke-linejoin:round;"/><path id="j" d="M14.2364,28.9788l10.0713,11.4002" style="fill:none; stroke:#fff; stroke-linecap:round; stroke-linejoin:round;"/><path id="k" d="M15.3913,39.0936l1.1121,1.1069" style="fill:none; stroke:#fff; stroke-linecap:round; stroke-linejoin:round;"/><path id="l" d="M14.8138,32.9643l6.4347-6.9641" style="fill:none; stroke:#fff; stroke-linecap:round; stroke-linejoin:round;"/><path id="m" d="M16.671,40.1l13.2685-14.0998" style="fill:none; stroke:#fff; stroke-linecap:round; stroke-linejoin:round;"/><path id="n" d="M24.3076,40.3789l9.689-10.0232" style="fill:none; stroke:#fff; stroke-linecap:round; stroke-linejoin:round;"/><path id="o" d="M31.0162,40.0293l1.7363-1.4628" style="fill:none; stroke:#fff; stroke-linecap:round; stroke-linejoin:round;"/><path id="p" d="M21.5806,19.6129c-.0004.3928.3179.7115.7108.7119.393.0004.7118-.3177.7122-.7105v-.0014c.0004-.3928-.3179-.7115-.7108-.7119-.393-.0004-.7118.3177-.7122.7105v.0014" style="fill:none; stroke:#fff; stroke-linecap:round; stroke-linejoin:round;"/></svg>
